X:204
T:Cogs with counter-melody
C:Colin Hume, 1980
L:1/8
M:2/2
R:Reel
S:Colin Hume's website,  colinhume.com  - chords can also be printed below the stave.
Q:1/2=110
%%MIDI chordname dim 0 3 6 9
K:G
P:A
V:1
%%MIDI program 65     Alto Sax
%%MIDI chordprog 46   Orchestral Harp
%%MIDI bassprog 32    Acoustic Bass
%%MIDI control 10 127    Right speaker
"G"GDBD "/"GDBD | "Am".A2 .A2 "/"A3G | "D7"FDAD "/"FDAD | "G"GABc "G7"d4 |
"C"eGcG "/"eGcG | "G"dGBG "Ddim"d^GBG | "A7"A^GAB "/"^cABc | "D7"d^c"_break"de d=cBA |
V:2
%%MIDI program 73     Flute
%%MIDI control 10 0  Left speaker
d4 B2AG | c4 A4 | A4 B2c2 | B6A2 |
G4 E2G2 | G4 ^F4 | E4 A2G2 | F2z6 |
P:B
V:1
"G"GDBD "/"GDBD | "Am".A2 .A2 "/"A3G | "D7"FDAD "/"FDAD | "G"GABc "G7"d4 |
"C"eGcG "/"eGcG | "G"dGBG "Ddim"d^GBG | "Am"ABcA "D7"FDEF | "G".G2.B2 G4 |
V:2
G4 B4 | c6 Bc | d4 A4 | B4G4 |
E4G2A2 | B6 ^AB | c2E2 B3A | G8 |
P:C
V:1
K:F
"Eb"G_EB,E "/"GFGA | "Bb"BFdF "/"B4 | "Gm"BGDG "/"BABc | "Dm"dAfA "/"d4 |
"Eb"g_eBg "Bb"fdBf | "F7"_ecAe "Gm"d2 (3GAB | "Ab"c_A_Ec "Eb"BGEB | "Bb7"_AFDA "C7"G2 (3CDE |
V:2
K:F
_E4 F2E2 | D3_E F4 | D3D B2d2 | A8 |
B3c d2B2 | A2F2 G4 | _A2GA B4 | B3B c2B2 |
P:D
V:1
"F"FCAC "/"FCAC | "Gm".G2 .G2 "/"G3F | "C7"ECGC "/"ECGC | "F"FGAB "F7"c4 |
"Bb"Bcde "Fdim"f2ed | "F".c2f2 "G7"F3G | "F"A2A2 "C7"GFGA | "F"F4 "D7"^F4 |]
V:2
A4 F4 | B4 G4 | E4 C4 | A4 F4 |
D6 ^G,2 | A,4 =G,4 | C6 C2 | F4 z4 |

